packages/kaspersky-hexa-ui-icons/src/iconsSVGs/16/StatusInfoSolid.svg

<svg width="16" height="16" viewBox="0 0 16 16" fill="none" xmlns="http://www.w3.org/2000/svg">
<path fill-rule="evenodd" clip-rule="evenodd" d="M8 15C11.866 15 15 11.866 15 8C15 4.13401 11.866 1 8 1C4.13401 1 1 4.13401 1 8C1 11.866 4.13401 15 8 15ZM8.85039 5.11636C8.85039 4.64692 8.46983 4.26636 8.00039 4.26636C7.53095 4.26636 7.15039 4.64692 7.15039 5.11636C7.15039 5.5858 7.53095 5.96636 8.00039 5.96636C8.46983 5.96636 8.85039 5.5858 8.85039 5.11636ZM8 11.8433C7.58579 11.8433 7.25 11.5075 7.25 11.0933V7.70732C7.25 7.29311 7.58579 6.95732 8 6.95732C8.41421 6.95732 8.75 7.29311 8.75 7.70732V11.0933C8.75 11.5075 8.41421 11.8433 8 11.8433Z" fill="black"/>
</svg>

<svg xmlns="http://www.w3.org/2000/svg" width="16" height="16" fill="none" viewBox="0 0 16 16"><path fill="#000" fill-rule="evenodd" d="M8 15c3.866 0 7-3.134 7-7s-3.134-7-7-7-7 3.134-7 7 3.134 7 7 7m.8504-9.8836a.85.85 0 1 0-1.7 0 .85.85 0 0 0 1.7 0M8 11.8433a.75.75 0 0 1-.75-.75v-3.386a.75.75 0 0 1 1.5 0v3.386a.75.75 0 0 1-.75.75"/></svg>
